X:147
T: In dem schoenen Monat Mai,
N: D0234
O: Europa, Mitteleuropa, Deutschland, Hohegeiss  Harz
N: Inzipit = Variante zum Lied
R: Staende - Lied, Koehler
M: 2/4
L: 1/16
K: G
G2B2 | e2B2d2A2 | c4f2d2 | c2bag2BB | d4
G2B2 | e2B2d2A2 | c4f2d2 | c2bag4 | d4b4
g2B2gBBg | fAA2c2a2 | f2d2dcba | gBB2d4
g2B2gBBg | fAA2A2c2 | f2d2dcba | g4

